src/assets/icons/ico-stroke-4step.svg

<svg width="24" height="22" viewBox="0 0 24 22" fill="none" xmlns="http://www.w3.org/2000/svg">
<path d="M16.9056 21.0366L16.8452 20.9977L16.8127 20.9766C16.7076 20.8994 16.4851 20.7338 16.436 20.6892C16.0264 20.327 15.7327 19.8767 15.5841 19.3487C15.4194 18.7633 15.4627 18.1873 15.5785 17.6861C14.614 18.5152 13.5935 19.3367 12.607 19.8799C11.9057 20.266 11.1046 20.5808 10.2565 20.6046C9.35287 20.6299 8.49763 20.3206 7.77631 19.6417C7.05997 18.9692 6.7267 18.1267 6.7267 17.2205C6.7267 16.3778 7.01308 15.5463 7.38079 14.7879C8.073 13.3602 9.28762 11.742 10.5064 10.1183L10.6803 9.88657C10.8491 9.64759 11.041 9.38093 11.2466 9.09504L11.247 9.09454L11.247 9.09449C11.8063 8.31698 12.4679 7.39724 13.0482 6.50502C12.345 7.01687 11.5645 7.64883 10.7428 8.36294C8.49102 10.3198 6.03757 12.7994 4.20477 14.8479L4.18009 14.8754L4.15392 14.9016C3.2119 15.8436 1.80612 15.8319 0.876945 15.135L0.801137 15.0782L0.734133 15.0112C-0.207894 14.0692 -0.196186 12.6634 0.500691 11.7342L0.544596 11.6757L0.594644 11.6223C0.661217 11.5513 0.739168 11.4677 0.827727 11.3729C1.81988 10.3098 4.14356 7.81991 6.71853 5.51397C8.11918 4.25966 9.62701 3.0297 11.0623 2.10559C12.4374 1.22021 13.9737 0.461914 15.3746 0.461914C16.0804 0.461914 16.6593 0.622641 17.1404 0.887218C17.5825 1.13039 17.8873 1.43574 18.0525 1.60123L18.0707 1.61951L18.0835 1.63225L18.0958 1.64533C19.7038 3.34265 19.1627 5.52502 18.3303 7.26167C17.7484 8.47562 16.8777 9.78835 15.9446 11.1071C16.2401 10.8829 16.5339 10.6752 16.824 10.4909C17.9093 9.80162 19.3439 9.17929 20.8009 9.76209C21.6323 10.0946 22.4462 10.8087 22.6907 11.8592C23.015 12.9095 22.7993 13.9395 22.4691 14.8042C22.3944 15 22.3102 15.1963 22.219 15.3922C22.5478 15.4831 22.8712 15.6494 23.154 15.9102C23.6702 16.334 23.9347 16.9455 23.9891 17.517C24.0475 18.1304 23.8773 18.8477 23.3306 19.3944C22.9953 19.6438 22.237 20.2 21.8864 20.4303C21.1982 20.9111 20.1181 21.5383 18.8812 21.5383C18.2125 21.5383 17.5713 21.3694 16.9699 21.0687L16.9056 21.0366Z" fill="currentColor"/>
</svg>

<svg width="24" height="22" fill="none" xmlns="http://www.w3.org/2000/svg"><path d="m16.9056 21.0366-.0604-.0389-.0325-.0211c-.1051-.0772-.3276-.2428-.3767-.2874-.4096-.3622-.7033-.8125-.8519-1.3405-.1647-.5854-.1214-1.1614-.0056-1.6626-.9645.8291-1.985 1.6506-2.9715 2.1938-.7013.3861-1.5024.7009-2.3505.7247-.9036.0253-1.7589-.284-2.4802-.9629-.7163-.6725-1.0496-1.515-1.0496-2.4212 0-.8427.2864-1.6742.654-2.4326.6923-1.4277 1.907-3.0459 3.1257-4.6696l.1739-.2317c.1688-.239.3607-.5057.5663-.7916l.0004-.0005c.5593-.7775 1.2209-1.6973 1.8012-2.5895-.7032.5119-1.4837 1.1438-2.3054 1.858-2.2518 1.9568-4.7052 4.4364-6.538 6.4849l-.0247.0275-.0262.0262c-.942.942-2.3478.9303-3.277.2334l-.0758-.0568-.067-.067c-.942-.942-.9303-2.3478-.2334-3.277l.0439-.0585.05-.0534c.0666-.071.1446-.1546.2331-.2494.9922-1.0631 3.3159-3.553 5.8908-5.859 1.4007-1.2542 2.9085-2.4842 4.3438-3.4083 1.3751-.8854 2.9114-1.6437 4.3123-1.6437.7058 0 1.2847.1607 1.7658.4253.4421.2432.7469.5485.9121.714l.0182.0183.0128.0128.0123.013c1.608 1.6973 1.0669 3.8797.2345 5.6164-.5819 1.214-1.4526 2.5266-2.3857 3.8454.2955-.2242.5893-.4319.8794-.6162 1.0853-.6893 2.5199-1.3116 3.9769-.7288.8314.3325 1.6453 1.0466 1.8898 2.0971.3243 1.0503.1086 2.0803-.2216 2.945a8.989 8.989 0 0 1-.2501.588c.3288.0909.6522.2572.935.518.5162.4238.7807 1.0353.8351 1.6068.0584.6134-.1118 1.3307-.6585 1.8774-.3353.2494-1.0936.8056-1.4442 1.0359-.6882.4808-1.7683 1.108-3.0052 1.108-.6687 0-1.3099-.1689-1.9113-.4696l-.0643-.0321Z" fill="currentColor"/></svg>
